X:1
T:Bring Your Vessels, Not a Few
T:Bring Your Vessels, Not a Few
T:Lelia Naylor Morris, 1912
T:Public Domain CCourtesy of the Cyber Hymnal™
T:Public Domain CCourtesy of the Cyber Hymnal™
C:Lelia Naylor Morris, 1912
Z:Public Domain
Z:CCourtesy of the Cyber Hymnal™
%%score ( 1 2 ) 3
L:1/8
Q:1/4=105
M:4/4
K:C
V:1 treble 
V:2 treble 
V:3 bass 
V:1
 C>[CD] | [CE]>[CE] [CE]>[CE] [CE]>[CD] C>[CE] | [EG]>[^D^F] [EG]>[=FA] [EG]2 [CE]>[C=D] | %3
w: 1.~Are you|long- ing for the full- ness Of the|bless- ing of the Lord In your|
w: 2.~Bring your|emp- ty earth- en ves- sels, Clean through|Je- sus’ pre- cious blood. Come, ye|
w: 3.~Like the|cruse of oil un- fail- ing Is His|grace for- ev- er- more, And His|
 C3 C [CE]2 [CE]2 | [B,D]6 [B,D]>[CE] | [DF]>[DF] [DF]>[DF] [DF]>[DF] [CE]>[B,D] | %6
w: heart and life to-|day? Claim the|prom- ise of your Fa- ther; Come ac-|
w: need- y, one and|all; And in|hu- man con- se- cra- tion Wait be-|
w: love un- chang- ing|still; And ac-|cord- ing to His pro- mise, With the|
 [CE]>[DF] [EG]>[FA] [EG]2 [EA]>[Ec] | [DB]3 [DA] [DG]2 [D^F]2 | [DG]6 ||"^Refrain" [FG]>[FG] | %10
w: cord- ing to His Word, In the|bless- èd, old time|way.||
w: fore the throne of God Till the|Ho- ly Ghost shall|fall.|He will|
w: Ho- ly Ghost and power He will|ev- ery ves- sel|fill.||
 [Ec]>[Ec] [Ec]>[Ec] [Fc]>[Fc] [GB]>[FA] | [EG]4 [CE]2 [EG]>[EA] | %12
w: ||
w: fill your heart to- day to o- ver-|flow- ing. As the|
w: ||
 [DG]>[DF] [DF]>[^CE] [DF]2 [FA]>[FB] | [EA]>[EG] [EG]>[^D^F] [EG]2 C>C | %14
w: ||
w: Lord com- mand- eth you, “Bring your|ves- sels, not a few.” He will|
w: ||
 [Cc]>[Cc] [Cc]>[Cc] [Cc]>[Cc] [GB]>[FA] | [EG]4 [CE]2 C>[CE] | [EG]3 [DF] [CE]2 [B,D]2 | [G,C]6 |] %18
w: ||||
w: fill your heart to- day to o- ver-|flow- ing With the|Ho- ly Ghost and|power.|
w: ||||
V:2
 x2 | x8 | x8 | C3 C x4 | x8 | x8 | x8 | x8 | x6 || x2 | x8 | x8 | x8 | x6 C>C | x8 | x8 | x8 | %17
 x6 |] %18
V:3
 [C,E,]>[C,F,] | [C,G,]>[C,G,] [C,G,]>[C,G,] [C,G,]>[C,F,] [C,E,]>[C,G,] | %2
 [C,C]>[C,C] [C,C]>[C,C] [C,C]2 [C,G,]>[C,F,] | [C,E,]3 [C,E,] [C,G,]2 [C,G,]2 | %4
 [G,,G,]6 [G,,G,]>[G,,G,] | [G,,B,]>[G,,B,] [G,,B,]>[G,,B,] [G,,B,]>[G,,B,] [G,,G,]>[G,,G,] | %6
 [C,G,]>[C,G,] [C,C]>[C,C] [C,C]2 [C,C]>[C,A,] | [D,G,]3 [D,C] [D,B,]2 [D,C]2 | [G,,B,]6 || %9
 [G,B,]>[G,B,] | [C,G,]4 [F,A,]4 | ([C,C]>[C,C][E,C]>[G,C]) ([C,G,]>[C,G,]) [C,C]>[C,B,] | %12
 [D,B,]>[G,B,] [G,B,]>[G,^A,] [G,B,]2 [G,D]>[G,D] | [C,C]>[C,C] [C,C]>[C,C] [C,C]2 [E,_B,]>[E,B,] | %14
 [F,A,]4 [F,A,]4 | ([C,C]>[C,C][C,C]>[C,C]) ([C,G,]>[C,G,]) [C,E,]>[C,G,] | %16
 [C,C]3 [F,,A,] [G,,G,]2 [G,,F,]2 | [C,E,]6 |] %18

